packages/astro-components-stencil/src/icons/volume-up.svg

<svg width="24" height="24" viewBox="0 0 24 24" fill="none" xmlns="http://www.w3.org/2000/svg">
<path fill-rule="evenodd" clip-rule="evenodd" d="M14 4.64996V4.44996C14 3.81996 14.63 3.36996 15.21 3.59996C18.6 4.88996 21 8.15996 21 12C21 15.84 18.6 19.11 15.21 20.4C14.63 20.62 14 20.18 14 19.55V19.35C14 18.97 14.24 18.64 14.6 18.5C17.18 17.47 19 14.94 19 12C19 9.05996 17.18 6.52996 14.6 5.49996C14.25 5.35996 14 5.02996 14 4.64996ZM3 9.99996V14C3 14.55 3.45 15 4 15H7L10.29 18.29C10.92 18.92 12 18.47 12 17.58V6.40996C12 5.51996 10.92 5.06996 10.29 5.69996L7 8.99996H4C3.45 8.99996 3 9.44996 3 9.99996ZM16.5 12C16.5 10.23 15.48 8.70996 14 7.96996V16.02C15.48 15.29 16.5 13.77 16.5 12Z" fill="black"/>
</svg>

<svg xmlns="http://www.w3.org/2000/svg" viewBox="0 0 24 24"><g xmlns="http://www.w3.org/2000/svg" id="volume-up" fill-rule="nonzero">
            <path d="M3 10v4c0 .55.45 1 1 1h3l3.29 3.29c.63.63 1.71.18 1.71-.71V6.41c0-.89-1.08-1.34-1.71-.71L7 9H4c-.55 0-1 .45-1 1zm13.5 2A4.5 4.5 0 0014 7.97v8.05c1.48-.73 2.5-2.25 2.5-4.02zM14 4.45v.2c0 .38.25.71.6.85A7.004 7.004 0 0119 12c0 2.94-1.82 5.47-4.4 6.5-.36.14-.6.47-.6.85v.2c0 .63.63 1.07 1.21.85A8.98 8.98 0 0021 12c0-3.84-2.4-7.11-5.79-8.4-.58-.23-1.21.22-1.21.85z"/>
        </g></svg>
